X: 134
T:Kilavel Fancy
T:Eilish Brogan
R:Reel
D:Music at Matt Molloy's Frankie Gavin & Alec Finn
Z:Sometimes played doubled. id:hn-reel-101
M:C|
L:1/8
Q:1/4=200
K:G
|DGBG A2BA|GE~E2 cEGE|DGBG A2BA|GE{G}ED EFGA|
B2Bd A2BA|GE~E2 cEGE|DGBG A2BA|GE{G}ED ~E3D||
GABd efge|dB~B2 dBAB|GABd efge|dBAG EG{A}GF|
GABd efge|dB~B2 d2ga|bgag egde|gedB AGEG|
